src/assets/m1/plus_color.svg

<svg xmlns="http://www.w3.org/2000/svg" width="64" height="64" fill-rule="evenodd" clip-rule="evenodd" image-rendering="optimizeQuality" shape-rendering="geometricPrecision" text-rendering="geometricPrecision" viewBox="0 0 4000 4000"><path fill="#5EA796" d="M2717.66 2118.9H2118.9v598.76h-238.88V2118.9h-598.76v-238.88h598.76v-598.76h238.88v598.76h598.76z"/><path fill="#fff" d="M2000 562.5c-793.48 0-1437.5 642.98-1437.5 1437.5 0 793.48 642.98 1437.5 1437.5 1437.5 793.48 0 1437.5-642.98 1437.5-1437.5 0-793.48-642.98-1437.5-1437.5-1437.5zm0 239.92c659.82 0 1197.54 537.76 1197.54 1197.54 0 659.82-537.76 1197.54-1197.54 1197.54-659.82 0-1197.54-537.76-1197.54-1197.54 0-659.82 537.76-1197.54 1197.54-1197.54z"/></svg>

<svg xmlns="http://www.w3.org/2000/svg" width="64" height="64" fill-rule="evenodd" clip-rule="evenodd" image-rendering="optimizeQuality" shape-rendering="geometricPrecision" text-rendering="geometricPrecision" viewBox="0 0 4000 4000"><path fill="#5EA796" d="M2717.66 2118.9L2118.9 2118.9 2118.9 2717.66 1880.02 2717.66 1880.02 2118.9 1281.26 2118.9 1281.26 1880.02 1880.02 1880.02 1880.02 1281.26 2118.9 1281.26 2118.9 1880.02 2717.66 1880.02z"></path><path fill="#ffffff" d="M2000 562.5c-793.48,0 -1437.5,642.98 -1437.5,1437.5 0,793.48 642.98,1437.5 1437.5,1437.5 793.48,0 1437.5,-642.98 1437.5,-1437.5 0,-793.48 -642.98,-1437.5 -1437.5,-1437.5zm0 239.92c659.82,0 1197.54,537.76 1197.54,1197.54 0,659.82 -537.76,1197.54 -1197.54,1197.54 -659.82,0 -1197.54,-537.76 -1197.54,-1197.54 0,-659.82 537.76,-1197.54 1197.54,-1197.54z"></path></svg>
